X: 1219
T: Alston No. 27
C:David Johnson
B: australian traditional tunes wiki
M:2/4
L:1/16
R: March
Q: 1/4=100
K:D
V:1 
|:"Em"EGFG "D"AGFG|"C"EGFG "B7"AGFG|"C"EGFG "B7"AGFG|"D"FEDF "Em"E4|
"Em"EGFG "D"AGFG|"C"EGFG "B7"AGFG|"C"EGFG "B7"AGFG|1"C"E4"B7"F4:|2"D"F4"Em"E4||
|:"Em"EBAB "D"DBAB|"Em"EBAB "D"FBAB|"Em"EBAB "D"DBAB|FEDF "Em"E4|
EBAB "D"DBAB|"Em"EBAB "D"FBAB|"Em"EBAB "D"DBAB|1"Em"E4"d"F4:|2"D"F4"Em"E4||
|:"D"FGAG "Bm"FGBG|"D"FGAG "Bm"FGBG|"D"FGAG FGFG|FEDF "Em"E4|
"D"FGAG "Bm"FGBG|"D"FGAG "Bm"FGBG|"D"FGAG "A"ABAB|"B7"ABAB "Em"E4:|
|:"Em"edBd "G"gdBd|"Em"edBd "G"gdBd|"Em"edBd "G"gdBd|"C"gfed "B7"B4|
"Em"edBd "G"gdBd|"Em"edBd "G"gdBd|"Em"edBd "G"gdBd|1"Em"G4 "B7"F4:|2"B7"F4 "Em"E4||
% abcbook-tune_id 6342d53a5540b9b18024ccb1


% abcbook-boost 0
% abcbook-tablature 
% abcbook-transpose 
% abcbook-lastupdated 1665324354729
% abcbook-soundfonts 
% abcbook-repeats 1
% NFF Book 2016

